X: 20121
M: C
L: 1/16
K: E
EEE2 E4 E3FB3F | EEE2 EF3 D2F2A3F |\
EEE2 E4 E3FB3F | Bd3A3B F3DA3F |\
EEE2 E4 E3FB3F | EEE2 E4 F3DA3F |\
EEE2 E4 E3FB3A |
eee2 e4 e3fb3f | eee2 e4 f3da2f2 |\
eee2 e4 e3fb3f | g3eb2e2 d2fg a2f2 |
g2e2b2e2 g2e2b2e2 | g2e2b2e2 d2fg a2f2 |\
g2e2b3B d2e2{de}f3e | d^cBA {c}d3A F3DDd3 |]|\


